X: 1
T: O'er the Water to Charlie
O: Trad
B: RSCDS 34-5
Z: John Chambers <jc:trillian.mit.edu>
M: 6/8
L: 1/8
K: D
   A | "D"D>FA     AFA | "G"{Bc}d2F "A7"E2D | "D"D>FA     AFA | "G"BAB "D"def \
     | "D"D>FA     AFA | "G"Bcd      "D"AFD | "D"d>fd "A7"ecA | "G"B3  "D"d2 :|
|: A | "D"d>fd "A7"ecA | "G"{Bc}d2F "A7"E2D | "D"d>fd "A7"ecA | "G"B3  "D"d2A \
     | "D"d>fd "A7"ecA | "G"B<d-d   "A7"FED | "D"D>FA     AFA | "G"B3  "D"d2 :|
%%center Book34/OerTheWaterToCharlie_D-JC.abc

%%sep 1 1 500
%%sep 1 1 500

